Newaita-dark/apps/48/gnumeric.svg

<svg height="48pt" viewBox="0 0 48 48" width="48pt" xmlns="http://www.w3.org/2000/svg" xmlns:xlink="http://www.w3.org/1999/xlink"><linearGradient id="a" gradientUnits="userSpaceOnUse" x1="23.81478" x2="23.81478" y1="42.0509045" y2="44.03547050005"><stop offset="0" stop-opacity=".27451"/><stop offset="1" stop-opacity="0"/></linearGradient><linearGradient id="b"><stop offset="0" stop-opacity=".313726"/><stop offset=".222222" stop-opacity=".27451"/><stop offset="1" stop-opacity="0"/></linearGradient><radialGradient id="c" cx="450.908936" cy="189.579361" gradientTransform="matrix(.00000026 -.117199 -.210958 -.00000015 73.234568 95.392999)" gradientUnits="userSpaceOnUse" r="21.166656" xlink:href="#b"/><radialGradient id="d" cx="450.908936" cy="189.579361" gradientTransform="matrix(-.00000026 .117199 .210958 .00000015 -26.597299 -11.291218)" gradientUnits="userSpaceOnUse" r="21.166656" xlink:href="#b"/><radialGradient id="e" cx="450.908936" cy="189.579361" gradientTransform="matrix(-.00000026 -.117199 .210958 -.00000015 -26.597299 95.392999)" gradientUnits="userSpaceOnUse" r="21.166656" xlink:href="#b"/><radialGradient id="f" cx="450.908936" cy="189.579361" gradientTransform="matrix(.00000026 .117199 -.210958 .00000015 73.234565 -11.291219)" gradientUnits="userSpaceOnUse" r="21.166656" xlink:href="#b"/><linearGradient id="g" gradientUnits="userSpaceOnUse" x1="23.318674" x2="23.318674" y1="42.05096580616" y2="4.34417266504"><stop offset="0" stop-color="#eee"/><stop offset="1" stop-color="#f5f5f5"/></linearGradient><linearGradient id="h"><stop offset="0" stop-color="#ef5350"/><stop offset="1" stop-color="#e57373"/></linearGradient><linearGradient id="i" gradientUnits="userSpaceOnUse" x1="23.318674" x2="23.318674" xlink:href="#h" y1="42.05096580616" y2="4.34417266504"/><linearGradient id="j" gradientUnits="userSpaceOnUse" x1="31.256932" x2="31.256932" xlink:href="#h" y1="42.05096680616" y2="27.16670529293"/><linearGradient id="k" gradientUnits="userSpaceOnUse" x1="36.7144580001" x2="36.7144580001" y1="42.0508962501" y2="25.18208862501"><stop offset="0" stop-color="#66bb6a"/><stop offset="1" stop-color="#81c784"/></linearGradient><path d="m12.898438 42.050781h20.839843v1.984375h-20.839843zm0 0" fill="url(#a)"/><path d="m33.738281 42.050781h3.96875v-1.984375h-3.96875zm0 0" fill="url(#c)"/><path d="m12.898438 42.050781h-3.96875v1.984375h3.96875zm0 0" fill="url(#d)"/><path d="m12.898438 42.050781h-3.96875v-1.984375h3.96875zm0 0" fill="url(#e)"/><path d="m33.738281 42.050781h3.96875v1.984375h-3.96875zm0 0" fill="url(#f)"/><path d="m10.914062 4.34375c-1.097656 0-1.984374.886719-1.984374 1.984375v33.738281c0 1.097656.886718 1.984375 1.984374 1.984375h24.808594c1.097656 0 1.984375-.886719 1.984375-1.984375v-26.792968l-8.929687-8.929688zm19.847657 0 6.945312 6.945312v-4.960937c0-1.097656-.886719-1.984375-1.984375-1.984375zm0 0" fill="url(#g)"/><path d="m15.875 11.289062c-1.097656 0-1.984375.886719-1.984375 1.984376v19.847656c0 1.097656.886719 1.984375 1.984375 1.984375h14.886719c1.097656 0 1.984375-.886719 1.984375-1.984375v-19.847656c0-1.097657-.886719-1.984376-1.984375-1.984376zm.496094 1.488282h1.984375v2.480468h-2.976563v-1.488281c0-.546875.445313-.992187.992188-.992187zm3.472656 0h2.730469v2.480468h-2.730469zm4.21875 0h2.730469v2.480468h-2.730469zm4.21875 0h1.984375c.546875 0 .992187.445312.992187.992187v1.488281h-2.976562zm-12.902344 3.96875h2.976563v1.984375h-2.976563zm4.464844 0h2.730469v1.984375h-2.730469zm4.21875 0h2.730469v1.984375h-2.730469zm4.21875 0h2.976562v1.984375h-2.976562zm-12.902344 3.472656h2.976563v2.234375h-2.976563zm4.464844 0h2.730469v2.234375h-2.730469zm4.21875 0h2.730469v2.234375h-2.730469zm4.21875 0h2.976562v2.234375h-2.976562zm-12.902344 3.722656h2.976563v1.984375h-2.976563zm4.464844 0h2.730469v1.984375h-2.730469zm4.21875 0h2.730469v1.984375h-2.730469zm4.21875 0h2.976562v1.984375h-2.976562zm-12.902344 3.472656h2.976563v2.234376h-2.976563zm4.464844 0h2.730469v2.234376h-2.730469zm4.21875 0h2.730469v2.234376h-2.730469zm4.21875 0h2.976562v2.234376h-2.976562zm-12.902344 3.722657h2.976563v2.480469h-1.984375c-.546875 0-.992188-.441407-.992188-.992188zm4.464844 0h2.730469v2.480469h-2.730469zm4.21875 0h2.730469v2.480469h-2.730469zm4.21875 0h2.976562v1.488281c0 .550781-.445312.992188-.992187.992188h-1.984375zm0 0" fill-opacity=".235294"/><path d="m30.761719 4.34375 6.945312 6.945312v-4.960937c0-1.097656-.886719-1.984375-1.984375-1.984375zm0 0" fill="url(#i)"/><path d="m10.914062 4.34375c-1.097656 0-1.984374.886719-1.984374 1.984375v.496094c0-1.097657.886718-1.984375 1.984374-1.984375h17.863282l8.929687 8.929687v-.496093l-8.929687-8.929688zm19.847657 0 .496093.496094h4.464844c1.097656 0 1.984375.886718 1.984375 1.984375v-.496094c0-1.097656-.886719-1.984375-1.984375-1.984375zm0 0" fill="#fff" fill-opacity=".392157"/><path d="m30.761719 4.34375 6.945312 6.945312v-.734374l-6.210937-6.210938zm-21.832031 34.984375v.738281c0 1.097656.886718 1.984375 1.984374 1.984375h24.808594c1.097656 0 1.984375-.886719 1.984375-1.984375v-.738281c0 1.101563-.886719 1.988281-1.984375 1.988281h-24.808594c-1.097656 0-1.984374-.886718-1.984374-1.988281zm0 0" fill-opacity=".235294"/><path d="m10.914062 4.203125c-1.175781 0-2.125.949219-2.125 2.125v33.738281c0 1.175782.949219 2.125 2.125 2.125h24.808594c1.175782 0 2.125-.949218 2.125-2.125v-26.792968c0-.035157-.015625-.070313-.042968-.097657l-8.929688-8.929687c-.027344-.027344-.0625-.042969-.097656-.042969zm19.847657 0c-.058594 0-.109375.035156-.132813.085937-.019531.054688-.007812.113282.03125.15625l6.945313 6.945313c.042969.039063.101562.050781.15625.03125.050781-.023437.085937-.074219.085937-.132813v-4.960937c0-1.175781-.949218-2.125-2.125-2.125zm-19.847657.28125h17.804688l8.847656 8.847656v26.734375c0 1.023438-.820312 1.84375-1.84375 1.84375h-24.808594c-1.023437 0-1.84375-.820312-1.84375-1.84375v-33.738281c0-1.023437.820313-1.84375 1.84375-1.84375zm20.1875 0h4.621094c1.023438 0 1.84375.820313 1.84375 1.84375v4.621094zm0 0" fill="#212121"/><path d="m31.257812 27.167969c-4.125 0-7.441406 3.316406-7.441406 7.441406 0 4.121094 3.316406 7.441406 7.441406 7.441406 4.121094 0 7.441407-3.320312 7.441407-7.441406h-7.441407zm0 0" fill="url(#j)"/><path d="m33.242188 25.183594v7.441406h7.441406c0-4.125-3.320313-7.441406-7.441406-7.441406zm0 0" fill="url(#k)"/><path d="m31.257812 27.167969c-4.125 0-7.441406 3.316406-7.441406 7.441406 0 .082031 0 .164063.003906.246094.128907-4.007813 3.398438-7.191407 7.4375-7.191407zm0 7.441406v.496094h7.425782c.007812-.164063.015625-.328125.015625-.496094zm0 0" fill="#fff" fill-opacity=".392157"/><path d="m33.242188 25.183594v.496094c3.957031 0 7.171874 3.054687 7.425781 6.945312h.015625c0-4.125-3.320313-7.441406-7.441406-7.441406zm0 0" fill="#fff" fill-opacity=".392157"/><path d="m23.820312 34.375c-.003906.078125-.003906.15625-.003906.234375 0 4.121094 3.316406 7.441406 7.441406 7.441406 4.121094 0 7.441407-3.320312 7.441407-7.441406h-.015625c-.238282 3.902344-3.460938 6.972656-7.425782 6.972656-4.046874 0-7.316406-3.191406-7.4375-7.207031zm0 0" fill-opacity=".235294"/><path d="m33.242188 32.128906v.496094h7.441406c0-.167969-.007813-.332031-.015625-.496094zm0 0" fill-opacity=".235294"/><g fill="none" stroke="#212121" stroke-linecap="round" stroke-linejoin="round" stroke-width="3" transform="matrix(.093759 0 0 .093759 0 20.158175)"><path d="m333.38483 74.763996c-43.995799 0-79.367421 35.371622-79.367421 79.36742 0 43.954136 35.371622 79.367421 79.367421 79.367421 43.954136 0 79.367421-35.413285 79.367421-79.367421h-79.367421zm0 0"/><path d="m354.549476 53.59935v79.367421h79.36742c0-43.995799-35.413285-79.367421-79.36742-79.367421zm0 0"/></g></svg>

<?xml version="1.0" encoding="UTF-8"?>
<svg xmlns="http://www.w3.org/2000/svg" xmlns:xlink="http://www.w3.org/1999/xlink" width="48pt" height="48pt" viewBox="0 0 48 48" version="1.1">
<defs>
<linearGradient id="linear0" gradientUnits="userSpaceOnUse" x1="254" y1="233.5" x2="254" y2="254.666672" gradientTransform="matrix(0.093759,0,0,0.093759,-0.00000572259,20.158178)">
<stop offset="0" style="stop-color:rgb(0%,0%,0%);stop-opacity:0.27451;"/>
<stop offset="1" style="stop-color:rgb(0%,0%,0%);stop-opacity:0;"/>
</linearGradient>
<radialGradient id="radial0" gradientUnits="userSpaceOnUse" cx="450.908936" cy="189.579361" fx="450.908936" fy="189.579361" r="21.166656" gradientTransform="matrix(0.000000261256,-0.117199,-0.210958,-0.000000152308,73.234568,95.392999)">
<stop offset="0" style="stop-color:rgb(0%,0%,0%);stop-opacity:0.313726;"/>
<stop offset="0.222222" style="stop-color:rgb(0%,0%,0%);stop-opacity:0.27451;"/>
<stop offset="1" style="stop-color:rgb(0%,0%,0%);stop-opacity:0;"/>
</radialGradient>
<radialGradient id="radial1" gradientUnits="userSpaceOnUse" cx="450.908936" cy="189.579361" fx="450.908936" fy="189.579361" r="21.166656" gradientTransform="matrix(-0.000000261256,0.117199,0.210958,0.000000152308,-26.597299,-11.291218)">
<stop offset="0" style="stop-color:rgb(0%,0%,0%);stop-opacity:0.313726;"/>
<stop offset="0.222222" style="stop-color:rgb(0%,0%,0%);stop-opacity:0.27451;"/>
<stop offset="1" style="stop-color:rgb(0%,0%,0%);stop-opacity:0;"/>
</radialGradient>
<radialGradient id="radial2" gradientUnits="userSpaceOnUse" cx="450.908936" cy="189.579361" fx="450.908936" fy="189.579361" r="21.166656" gradientTransform="matrix(-0.000000261256,-0.117199,0.210958,-0.000000152308,-26.597299,95.392999)">
<stop offset="0" style="stop-color:rgb(0%,0%,0%);stop-opacity:0.313726;"/>
<stop offset="0.222222" style="stop-color:rgb(0%,0%,0%);stop-opacity:0.27451;"/>
<stop offset="1" style="stop-color:rgb(0%,0%,0%);stop-opacity:0;"/>
</radialGradient>
<radialGradient id="radial3" gradientUnits="userSpaceOnUse" cx="450.908936" cy="189.579361" fx="450.908936" fy="189.579361" r="21.166656" gradientTransform="matrix(0.000000261256,0.117199,-0.210958,0.000000152308,73.234565,-11.291219)">
<stop offset="0" style="stop-color:rgb(0%,0%,0%);stop-opacity:0.313726;"/>
<stop offset="0.222222" style="stop-color:rgb(0%,0%,0%);stop-opacity:0.27451;"/>
<stop offset="1" style="stop-color:rgb(0%,0%,0%);stop-opacity:0;"/>
</radialGradient>
<linearGradient id="linear1" gradientUnits="userSpaceOnUse" x1="940" y1="1695.118164" x2="940" y2="175.118118" gradientTransform="matrix(0.0248071,0,0,0.0248071,0,0.00000000000000282)">
<stop offset="0" style="stop-color:rgb(93.333334%,93.333334%,93.333334%);stop-opacity:1;"/>
<stop offset="1" style="stop-color:rgb(96.078432%,96.078432%,96.078432%);stop-opacity:1;"/>
</linearGradient>
<linearGradient id="linear2" gradientUnits="userSpaceOnUse" x1="940" y1="1695.118164" x2="940" y2="175.118118" gradientTransform="matrix(0.0248071,0,0,0.0248071,0,0.00000000000000282)">
<stop offset="0" style="stop-color:rgb(93.725491%,32.549021%,31.37255%);stop-opacity:1;"/>
<stop offset="1" style="stop-color:rgb(89.803922%,45.09804%,45.09804%);stop-opacity:1;"/>
</linearGradient>
<linearGradient id="linear3" gradientUnits="userSpaceOnUse" x1="940" y1="1215.118164" x2="940" y2="615.118103" gradientTransform="matrix(0.0248071,0,0,0.0248071,7.938258,11.907409)">
<stop offset="0" style="stop-color:rgb(93.725491%,32.549021%,31.37255%);stop-opacity:1;"/>
<stop offset="1" style="stop-color:rgb(89.803922%,45.09804%,45.09804%);stop-opacity:1;"/>
</linearGradient>
<linearGradient id="linear4" gradientUnits="userSpaceOnUse" x1="296.333344" y1="117.083344" x2="296.333344" y2="-62.833332" gradientTransform="matrix(0.093759,0,0,0.093759,8.93054,31.073279)">
<stop offset="0" style="stop-color:rgb(40.000001%,73.333335%,41.568628%);stop-opacity:1;"/>
<stop offset="1" style="stop-color:rgb(50.588238%,78.039217%,51.764709%);stop-opacity:1;"/>
</linearGradient>
</defs>
<g id="surface1">
<path style=" stroke:none;fill-rule:nonzero;fill:url(#linear0);" d="M 12.898438 42.050781 L 33.738281 42.050781 L 33.738281 44.035156 L 12.898438 44.035156 Z M 12.898438 42.050781 "/>
<path style=" stroke:none;fill-rule:nonzero;fill:url(#radial0);" d="M 33.738281 42.050781 L 37.707031 42.050781 L 37.707031 40.066406 L 33.738281 40.066406 Z M 33.738281 42.050781 "/>
<path style=" stroke:none;fill-rule:nonzero;fill:url(#radial1);" d="M 12.898438 42.050781 L 8.929688 42.050781 L 8.929688 44.035156 L 12.898438 44.035156 Z M 12.898438 42.050781 "/>
<path style=" stroke:none;fill-rule:nonzero;fill:url(#radial2);" d="M 12.898438 42.050781 L 8.929688 42.050781 L 8.929688 40.066406 L 12.898438 40.066406 Z M 12.898438 42.050781 "/>
<path style=" stroke:none;fill-rule:nonzero;fill:url(#radial3);" d="M 33.738281 42.050781 L 37.707031 42.050781 L 37.707031 44.035156 L 33.738281 44.035156 Z M 33.738281 42.050781 "/>
<path style=" stroke:none;fill-rule:nonzero;fill:url(#linear1);" d="M 10.914062 4.34375 C 9.816406 4.34375 8.929688 5.230469 8.929688 6.328125 L 8.929688 40.066406 C 8.929688 41.164062 9.816406 42.050781 10.914062 42.050781 L 35.722656 42.050781 C 36.820312 42.050781 37.707031 41.164062 37.707031 40.066406 L 37.707031 13.273438 L 28.777344 4.34375 Z M 30.761719 4.34375 L 37.707031 11.289062 L 37.707031 6.328125 C 37.707031 5.230469 36.820312 4.34375 35.722656 4.34375 Z M 30.761719 4.34375 "/>
<path style=" stroke:none;fill-rule:nonzero;fill:rgb(0%,0%,0%);fill-opacity:0.235294;" d="M 15.875 11.289062 C 14.777344 11.289062 13.890625 12.175781 13.890625 13.273438 L 13.890625 33.121094 C 13.890625 34.21875 14.777344 35.105469 15.875 35.105469 L 30.761719 35.105469 C 31.859375 35.105469 32.746094 34.21875 32.746094 33.121094 L 32.746094 13.273438 C 32.746094 12.175781 31.859375 11.289062 30.761719 11.289062 Z M 16.371094 12.777344 L 18.355469 12.777344 L 18.355469 15.257812 L 15.378906 15.257812 L 15.378906 13.769531 C 15.378906 13.222656 15.824219 12.777344 16.371094 12.777344 Z M 19.84375 12.777344 L 22.574219 12.777344 L 22.574219 15.257812 L 19.84375 15.257812 Z M 24.0625 12.777344 L 26.792969 12.777344 L 26.792969 15.257812 L 24.0625 15.257812 Z M 28.28125 12.777344 L 30.265625 12.777344 C 30.8125 12.777344 31.257812 13.222656 31.257812 13.769531 L 31.257812 15.257812 L 28.28125 15.257812 Z M 15.378906 16.746094 L 18.355469 16.746094 L 18.355469 18.730469 L 15.378906 18.730469 Z M 19.84375 16.746094 L 22.574219 16.746094 L 22.574219 18.730469 L 19.84375 18.730469 Z M 24.0625 16.746094 L 26.792969 16.746094 L 26.792969 18.730469 L 24.0625 18.730469 Z M 28.28125 16.746094 L 31.257812 16.746094 L 31.257812 18.730469 L 28.28125 18.730469 Z M 15.378906 20.21875 L 18.355469 20.21875 L 18.355469 22.453125 L 15.378906 22.453125 Z M 19.84375 20.21875 L 22.574219 20.21875 L 22.574219 22.453125 L 19.84375 22.453125 Z M 24.0625 20.21875 L 26.792969 20.21875 L 26.792969 22.453125 L 24.0625 22.453125 Z M 28.28125 20.21875 L 31.257812 20.21875 L 31.257812 22.453125 L 28.28125 22.453125 Z M 15.378906 23.941406 L 18.355469 23.941406 L 18.355469 25.925781 L 15.378906 25.925781 Z M 19.84375 23.941406 L 22.574219 23.941406 L 22.574219 25.925781 L 19.84375 25.925781 Z M 24.0625 23.941406 L 26.792969 23.941406 L 26.792969 25.925781 L 24.0625 25.925781 Z M 28.28125 23.941406 L 31.257812 23.941406 L 31.257812 25.925781 L 28.28125 25.925781 Z M 15.378906 27.414062 L 18.355469 27.414062 L 18.355469 29.648438 L 15.378906 29.648438 Z M 19.84375 27.414062 L 22.574219 27.414062 L 22.574219 29.648438 L 19.84375 29.648438 Z M 24.0625 27.414062 L 26.792969 27.414062 L 26.792969 29.648438 L 24.0625 29.648438 Z M 28.28125 27.414062 L 31.257812 27.414062 L 31.257812 29.648438 L 28.28125 29.648438 Z M 15.378906 31.136719 L 18.355469 31.136719 L 18.355469 33.617188 L 16.371094 33.617188 C 15.824219 33.617188 15.378906 33.175781 15.378906 32.625 Z M 19.84375 31.136719 L 22.574219 31.136719 L 22.574219 33.617188 L 19.84375 33.617188 Z M 24.0625 31.136719 L 26.792969 31.136719 L 26.792969 33.617188 L 24.0625 33.617188 Z M 28.28125 31.136719 L 31.257812 31.136719 L 31.257812 32.625 C 31.257812 33.175781 30.8125 33.617188 30.265625 33.617188 L 28.28125 33.617188 Z M 28.28125 31.136719 "/>
<path style=" stroke:none;fill-rule:nonzero;fill:url(#linear2);" d="M 30.761719 4.34375 L 37.707031 11.289062 L 37.707031 6.328125 C 37.707031 5.230469 36.820312 4.34375 35.722656 4.34375 Z M 30.761719 4.34375 "/>
<path style=" stroke:none;fill-rule:nonzero;fill:rgb(100%,100%,100%);fill-opacity:0.392157;" d="M 10.914062 4.34375 C 9.816406 4.34375 8.929688 5.230469 8.929688 6.328125 L 8.929688 6.824219 C 8.929688 5.726562 9.816406 4.839844 10.914062 4.839844 L 28.777344 4.839844 L 37.707031 13.769531 L 37.707031 13.273438 L 28.777344 4.34375 Z M 30.761719 4.34375 L 31.257812 4.839844 L 35.722656 4.839844 C 36.820312 4.839844 37.707031 5.726562 37.707031 6.824219 L 37.707031 6.328125 C 37.707031 5.230469 36.820312 4.34375 35.722656 4.34375 Z M 30.761719 4.34375 "/>
<path style=" stroke:none;fill-rule:nonzero;fill:rgb(0%,0%,0%);fill-opacity:0.235294;" d="M 30.761719 4.34375 L 37.707031 11.289062 L 37.707031 10.554688 L 31.496094 4.34375 Z M 8.929688 39.328125 L 8.929688 40.066406 C 8.929688 41.164062 9.816406 42.050781 10.914062 42.050781 L 35.722656 42.050781 C 36.820312 42.050781 37.707031 41.164062 37.707031 40.066406 L 37.707031 39.328125 C 37.707031 40.429688 36.820312 41.316406 35.722656 41.316406 L 10.914062 41.316406 C 9.816406 41.316406 8.929688 40.429688 8.929688 39.328125 Z M 8.929688 39.328125 "/>
<path style=" stroke:none;fill-rule:nonzero;fill:rgb(12.941177%,12.941177%,12.941177%);fill-opacity:1;" d="M 10.914062 4.203125 C 9.738281 4.203125 8.789062 5.152344 8.789062 6.328125 L 8.789062 40.066406 C 8.789062 41.242188 9.738281 42.191406 10.914062 42.191406 L 35.722656 42.191406 C 36.898438 42.191406 37.847656 41.242188 37.847656 40.066406 L 37.847656 13.273438 C 37.847656 13.238281 37.832031 13.203125 37.804688 13.175781 L 28.875 4.246094 C 28.847656 4.21875 28.8125 4.203125 28.777344 4.203125 Z M 30.761719 4.203125 C 30.703125 4.203125 30.652344 4.238281 30.628906 4.289062 C 30.609375 4.34375 30.621094 4.402344 30.660156 4.445312 L 37.605469 11.390625 C 37.648438 11.429688 37.707031 11.441406 37.761719 11.421875 C 37.8125 11.398438 37.847656 11.347656 37.847656 11.289062 L 37.847656 6.328125 C 37.847656 5.152344 36.898438 4.203125 35.722656 4.203125 Z M 10.914062 4.484375 L 28.71875 4.484375 L 37.566406 13.332031 L 37.566406 40.066406 C 37.566406 41.089844 36.746094 41.910156 35.722656 41.910156 L 10.914062 41.910156 C 9.890625 41.910156 9.070312 41.089844 9.070312 40.066406 L 9.070312 6.328125 C 9.070312 5.304688 9.890625 4.484375 10.914062 4.484375 Z M 31.101562 4.484375 L 35.722656 4.484375 C 36.746094 4.484375 37.566406 5.304688 37.566406 6.328125 L 37.566406 10.949219 Z M 31.101562 4.484375 "/>
<path style=" stroke:none;fill-rule:nonzero;fill:url(#linear3);" d="M 31.257812 27.167969 C 27.132812 27.167969 23.816406 30.484375 23.816406 34.609375 C 23.816406 38.730469 27.132812 42.050781 31.257812 42.050781 C 35.378906 42.050781 38.699219 38.730469 38.699219 34.609375 L 31.257812 34.609375 Z M 31.257812 27.167969 "/>
<path style=" stroke:none;fill-rule:nonzero;fill:url(#linear4);" d="M 33.242188 25.183594 L 33.242188 32.625 L 40.683594 32.625 C 40.683594 28.5 37.363281 25.183594 33.242188 25.183594 Z M 33.242188 25.183594 "/>
<path style=" stroke:none;fill-rule:nonzero;fill:rgb(100%,100%,100%);fill-opacity:0.392157;" d="M 31.257812 27.167969 C 27.132812 27.167969 23.816406 30.484375 23.816406 34.609375 C 23.816406 34.691406 23.816406 34.773438 23.820312 34.855469 C 23.949219 30.847656 27.21875 27.664062 31.257812 27.664062 Z M 31.257812 34.609375 L 31.257812 35.105469 L 38.683594 35.105469 C 38.691406 34.941406 38.699219 34.777344 38.699219 34.609375 Z M 31.257812 34.609375 "/>
<path style=" stroke:none;fill-rule:nonzero;fill:rgb(100%,100%,100%);fill-opacity:0.392157;" d="M 33.242188 25.183594 L 33.242188 25.679688 C 37.199219 25.679688 40.414062 28.734375 40.667969 32.625 L 40.683594 32.625 C 40.683594 28.5 37.363281 25.183594 33.242188 25.183594 Z M 33.242188 25.183594 "/>
<path style=" stroke:none;fill-rule:nonzero;fill:rgb(0%,0%,0%);fill-opacity:0.235294;" d="M 23.820312 34.375 C 23.816406 34.453125 23.816406 34.53125 23.816406 34.609375 C 23.816406 38.730469 27.132812 42.050781 31.257812 42.050781 C 35.378906 42.050781 38.699219 38.730469 38.699219 34.609375 L 38.683594 34.609375 C 38.445312 38.511719 35.222656 41.582031 31.257812 41.582031 C 27.210938 41.582031 23.941406 38.390625 23.820312 34.375 Z M 23.820312 34.375 "/>
<path style=" stroke:none;fill-rule:nonzero;fill:rgb(0%,0%,0%);fill-opacity:0.235294;" d="M 33.242188 32.128906 L 33.242188 32.625 L 40.683594 32.625 C 40.683594 32.457031 40.675781 32.292969 40.667969 32.128906 Z M 33.242188 32.128906 "/>
<path style="fill:none;stroke-width:3;stroke-linecap:round;stroke-linejoin:round;stroke:rgb(12.941177%,12.941177%,12.941177%);stroke-opacity:1;stroke-miterlimit:4;" d="M 333.38483 74.763996 C 289.389031 74.763996 254.017409 110.135618 254.017409 154.131416 C 254.017409 198.085552 289.389031 233.498837 333.38483 233.498837 C 377.338966 233.498837 412.752251 198.085552 412.752251 154.131416 L 333.38483 154.131416 Z M 333.38483 74.763996 " transform="matrix(0.093759,0,0,0.093759,0,20.158175)"/>
<path style="fill:none;stroke-width:3;stroke-linecap:round;stroke-linejoin:round;stroke:rgb(12.941177%,12.941177%,12.941177%);stroke-opacity:1;stroke-miterlimit:4;" d="M 354.549476 53.59935 L 354.549476 132.966771 L 433.916896 132.966771 C 433.916896 88.970972 398.503611 53.59935 354.549476 53.59935 Z M 354.549476 53.59935 " transform="matrix(0.093759,0,0,0.093759,0,20.158175)"/>
</g>
</svg>
